X: 738
T: Ey Şûh-i Cihân
C: Suyolcuzâde Salih Efendi
O: Turkey
F: http://compmusic.upf.edu/node/140
N: evic--sarki--ciftesofyan--ey_suh-i--suyolcuzade_salih_efendi
N: makam= evic
N: form= sarki
N: usul= ciftesofyan = 9/8
M: 9/8
L: 1/16
K: C _1/4B ^f ^c 
Q: 1/4=246
%%MIDI tuningsystem comma53
f3=c' b2a2 g2^3/4f2 efag fe | d3ag2 =f2e2 d2=cf edcB  | 
w:  ARANAĞME  |   | 
A3e d2=c2 B2A2 ABAG F^3/4E | FG AB=c2 BAAG GFF2 Adf2  | 
w:   |   | 
f3=c' b2a2 g2^3/4f2 efag fe | d3ag2 =f2e2 d2=cf edcB  | 
w:  ARANAĞME  |   | 
A3e d2=c2 B2A2 ABAG F^3/4E | FG AB=c2 BAAG GFF2 Adf2  | 
w:   |   | 
f2g2 f2^3/4e2 d4 ^3/4c6 | d4^3/4e4f2 e2f2 gefg  | \
w:  Ey  *  *  *  şûh_  |  i  ci hân   *  *  SAZ  | 
a2f4g2 a4 g4 f2 | 
w:  *  Sev *  di   | 
b4a2 g2ag f^3/4ef2 dAF2  | f2g2 f2^3/4e2 d4 ^3/4c6 | \
w:  se ni  *  cân   *  *  *  *  SAZ  |  Ey  *  *  *  şûh_  | 
d4^3/4e4f2 e2f2 gefg  | 
w:  i  ci hân   *  *  SAZ  | 
a2f4g2 a4 g4 f2 | b4a2 g2ag f^3/4ef2 g^3/4f=ef  | \
w:  *  Sev *  di   |  se ni  *  cân   *  *  *  *  SAZ  | 
d2d4e2 e8 d2 | 
w:  *  Lût *  fey  | 
d4a4{_b}a2 g2=f2 e2d2  | =c3B A2B2 c4 B4 A2 | \
w:  le  a *  man    |  Gel  *  *  *  bez  | 
A2 G2G2 F2d4=c4_2/4B2  | 
w:  me  *  he *  man    | 
=c2d2 c2_2/4B2 c2d2 c4 B2 | A4e4{=f}e2 d2=c2 B2A2  | \
w:  Lût *  *  *  fey  |  le  a *  man    | 
z2A4B2 {d}=c4 B4 A2 | 
w:  Gel  *  *  bez  | 
A2 G2G2 F2F2 ^3/4E2F3cd^3/4e  | f3=c' b2a2 g2^3/4f2 efag fe | 
w:  me  *  he *  man   *  *  SAZ  |  ARANAĞME  | 
d3ag2 =f2e2 d2=cf edcB  | A3e d2=c2 B2A2 ABAG F^3/4E | 
w:   |   | 
FG AB=c2 BAAG GFF2 Adf2  | f3=c' b2a2 g2^3/4f2 efag fe | 
w:   |  ARANAĞME  | 
d3ag2 =f2e2 d2=cf edcB  | A3e d2=c2 B2A2 ABAG F^3/4E | 
w:   |   | 
FG AB=c2 BAAG GFF2 Adf2  | f2g2 f2^3/4e2 d4 ^3/4c6 | 
w:   |  Ey  *  *  *  şûh_  | 
d4^3/4e4f2 e2f2 gefg  | a2f4g2 a4 g4 f2 | \
w:  i  ci hân   *  *  SAZ  |  *  Sev *  di   | 
b4a2 g2ag f^3/4ef2 dAF2  | 
w:  se ni  *  cân   *  *  *  *  SAZ  | 
f2g2 f2^3/4e2 d4 ^3/4c6 | d4^3/4e4f2 e2f2 gefg  | \
w:  Ey  *  *  *  şûh_  |  i  ci hân   *  *  SAZ  | 
a2f4g2 a4 g4 f2 | 
w:  *  Sev *  di   | 
b4a2 g2ag f^3/4ef2 g^3/4f=ef  | d2d4e2 e8 d2 | \
w:  se ni  *  cân   *  *  *  *  SAZ  |  *  Lût *  fey  | 
d4a4{_b}a2 g2=f2 e2d2  | 
w:  le  a *  man    | 
=c3B A2B2 c4 B4 A2 | A2 G2G2 F2d4=c4_2/4B2  | \
w:  Gel  *  *  *  bez  |  me  *  he *  man    | 
=c2d2 c2_2/4B2 c2d2 c4 B2 | 
w:  Lût *  *  *  fey  | 
A4e4{=f}e2 d2=c2 B2A2  | z2A4B2 {d}=c4 B4 A2 | \
w:  le  a *  man    |  Gel  *  *  bez  | 
A2 G2G2 F2F2 {G}^3/4E2F6  | |


